X: 39974
T: Three Around Three
R: barndance
M: 4/4
K: Gmajor
|:d2 BA G2 G2|A2 BA G2 D2|EDEF G2 AB|c2 B2 B2 A2|
d2 BA G2 GG|A2 BA G2 DD|EDEF G2 Ac|1 B2 G2 G4:|2 B2 G2 G2 Bc||
|:d2 ef gfed|e2 e2 e2 ge|d2 B2 BAGD|FGAB A3 A|
d2 ef gfed|e2 ee e2 d2|efge fgaf|1 g4- g2 fe:|2 g4- g2 BB||
|:d2 BA G2 A2-|A2 BA G2 D/E/D|EDEF GFGA|BABc B/c/B Be|
d2 BA G2 D2|A2 BA G2 D/D/D|EDEF G2 Ac|1 B/c/B G2 GABc:|2 B/c/B G2 G2 ee||
|:d2 ef gfed|e2 ee ef g/f/e|d2 BB BAGD|FGAB A3 A|
d2 ef gfed|e2 ec e2 dd|ef g2 fgaf|1 g4- g2 e/f/e:|2 g4 G4||

